X:0296
M:6/8
L:1/8
Q:3/8=108
K:G
d   |g2d Te2d |dgd Te2d   |gfe  dBG |ABA A2
d/c/|BcB  BAG |ABA  Adc   |BAG  AGF |GGG G2:|

